build/img/landing.svg

<svg width="60" height="60" viewBox="0 0 60 60" fill="#686868" xmlns="http://www.w3.org/2000/svg">
<path d="M54.4561 49.1568C53.7922 47.7338 52.5486 46.6648 51.0421 46.2219C49.5355 45.7791 47.9113 46.0052 46.5831 46.8427C45.5809 45.716 44.16 45.0504 42.6529 45.0019C42.098 43.4262 40.9105 42.1536 39.3769 41.4912C37.8434 40.8287 36.1028 40.8364 34.5752 41.5125C34.5408 41.4571 34.4978 41.4087 34.4623 41.3539C36.7457 38.141 37.9812 34.3014 38 30.3596V29.7796C38.0066 28.2532 36.7764 27.0097 35.25 26.9998H33V6.1882C34.8541 5.11805 35.9975 3.14086 36 0.999961C36 0.447656 35.5523 0 35 0H25.0001C24.4478 0 24.0001 0.447656 24.0001 0.999961C24.0026 3.14086 25.146 5.11805 27.0001 6.1882V27H24.7501C23.2239 27.01 21.9936 28.2534 22.0001 29.7798V30.3599C22.0049 32.8193 22.493 35.2536 23.4367 37.5248C21.1255 38.3032 19.2053 39.9458 18.0782 42.1085C15.578 41.6154 13.0445 42.7875 11.8018 45.0123C9.78633 44.8586 7.92246 46.0894 7.27254 48.0035C3.22289 48.1312 0.00492187 51.4485 0 55.5V59C0 59.5523 0.447656 60 0.999961 60H58.9999C59.2651 60.0001 59.5195 59.8948 59.7072 59.7072C59.8947 59.5197 60 59.2652 60 58.9999V55.9999C59.9965 52.6971 57.6862 49.8455 54.4561 49.1568ZM26.1265 2.00004H33.8735C33.4173 3.76617 31.8241 5.00004 30 5.00004C28.1759 5.00004 26.5827 3.76617 26.1265 2.00004ZM29 26.9966V6.90973C29.3303 6.96773 29.6647 6.99797 30 7.00008C30.3353 6.99797 30.6698 6.96785 31 6.90973V26.9966H29ZM31 29V32C31 32.5523 30.5523 33 30 33C29.4477 33 29 32.5522 29 32V29H31ZM24 29.7798C23.9939 29.5764 24.07 29.379 24.2111 29.2323C24.3521 29.0856 24.5464 29.0019 24.75 29H27V32C27 33.6568 28.3431 35 30 35C31.6569 35 33 33.6568 33 32V29H35.25C35.4536 29.0019 35.6479 29.0856 35.7889 29.2323C35.93 29.379 36.0061 29.5764 36 29.7798V30.3599C35.9861 33.6987 34.9945 36.9604 33.1478 39.7419C31.1265 37.6939 28.2647 36.7075 25.4108 37.0751L25.3407 36.9209C24.4575 34.8462 24.0014 32.6147 23.9999 30.3598L24 29.7798ZM58 58H2.00004V55.5C2.00344 52.4639 4.46391 50.0034 7.5 50C7.6568 50 7.81102 50.0118 7.96441 50.0244C8.49457 50.068 8.96625 49.6896 9.03867 49.1626C9.11953 48.4521 9.50812 47.813 10.1017 47.4142C10.6952 47.0154 11.4339 46.8972 12.1222 47.0909C12.6074 47.2163 13.1104 46.963 13.2984 46.4986C13.9051 44.987 15.3714 43.9975 17 44C17.4444 44.006 17.8845 44.0871 18.3018 44.2398C18.8041 44.4141 19.3549 44.1648 19.5557 43.6724C20.6755 40.9158 23.3204 39.083 26.2948 39.0027C29.2691 38.9224 32.0091 40.6099 33.2759 43.3022C33.4011 43.5669 33.6361 43.7634 33.9189 43.8397C34.2016 43.9161 34.5036 43.8647 34.7452 43.6991C35.8567 42.9371 37.2777 42.7875 38.5235 43.3014C39.7693 43.8151 40.6717 44.923 40.9229 46.247C41.0237 46.7679 41.5126 47.1203 42.0387 47.0511L42.1495 47.0355C42.2654 47.0155 42.3826 47.0036 42.5002 46.9999C43.7509 46.999 44.9046 47.6736 45.5173 48.7641C45.6711 49.0305 45.939 49.2114 46.2436 49.2544C46.5483 49.2974 46.8558 49.1978 47.0773 48.9843C47.9337 48.1506 49.1586 47.8158 50.32 48.0981C51.4813 48.3804 52.4159 49.2401 52.794 50.3739C52.9181 50.7362 53.2382 50.9959 53.6182 51.0428C56.1196 51.3543 57.9978 53.4791 58.0001 55.9998L58 58Z"/>
<path d="M29.433 43.994C29.6967 43.9661 29.9386 43.8347 30.1054 43.6285C30.2723 43.4223 30.3504 43.1583 30.3226 42.8946C30.2947 42.6308 30.1632 42.389 29.9571 42.2222C28.5681 41.1 26.7208 40.7217 25.0026 41.2077C23.2844 41.6937 21.9088 42.9832 21.3131 44.6666C21.1939 45.0035 21.2635 45.3783 21.4957 45.6499C21.7278 45.9216 22.0872 46.0487 22.4386 45.9835C22.7899 45.9182 23.0797 45.6706 23.1988 45.3337C23.6949 43.936 25.0168 43.0016 26.5001 43.0001C27.3009 42.9967 28.0782 43.2713 28.6993 43.7769C28.9053 43.9437 29.1693 44.0217 29.433 43.994Z"/>
<path d="M42 49C41.4733 49 40.9558 49.1384 40.4995 49.4014C40.1899 49.5799 39.999 49.9101 39.9989 50.2676C39.9988 50.625 40.1894 50.9554 40.499 51.1341C40.8087 51.3128 41.19 51.3127 41.4995 51.1339C41.809 50.9554 42.1902 50.9555 42.4995 51.1341C42.8089 51.3127 42.9997 51.6428 42.9999 52.0001C42.9999 52.5524 43.4476 53.0001 43.9999 53.0001C44.5522 53.0001 44.9999 52.5524 44.9999 52.0001C44.9982 50.3439 43.6561 49.0019 42 49Z"/>
<path d="M53 53.0001C52.4734 53 51.9561 53.1386 51.5 53.4019C51.1905 53.5804 50.9999 53.9106 50.9999 54.2679C50.9999 54.6252 51.1905 54.9553 51.5 55.1339C51.8095 55.3125 52.1907 55.3123 52.5001 55.1335C52.8097 54.9553 53.1907 54.9558 53.4999 55.1344C53.8092 55.3131 53.9997 55.643 54.0001 56.0002C54.0001 56.5525 54.4478 57.0001 55.0001 57.0001C55.5524 57.0001 56 56.5525 56 56.0002C55.9981 54.344 54.6561 53.0018 53 53.0001Z"/>
<path d="M14.1982 49.0698C13.0473 48.8365 11.8561 49.1956 11.0258 50.0259C10.1954 50.8562 9.83646 52.0475 10.0698 53.1982C10.1406 53.5484 10.3929 53.8341 10.7314 53.9478C11.0701 54.0614 11.4436 53.986 11.7115 53.7495C11.9792 53.5131 12.1006 53.1518 12.0297 52.8017C12.0098 52.7023 11.9999 52.6013 12 52.4999C12.0009 51.6719 12.6719 51.0009 13.5 50.9999C13.6013 50.9999 13.7024 51.0099 13.8017 51.0297C14.343 51.1391 14.8705 50.7892 14.9799 50.2479C15.0894 49.7066 14.7395 49.1793 14.1982 49.0698Z"/>
<path d="M29.4999 48C28.8758 47.9995 28.256 48.1054 27.6674 48.313C27.149 48.4984 26.8781 49.0678 27.0611 49.587C27.2442 50.1061 27.8124 50.3795 28.3323 50.1988C29.6041 49.7511 31.02 50.0731 31.9734 51.0264C32.9268 51.9798 33.2486 53.3957 32.801 54.6675C32.6803 55.0049 32.7494 55.381 32.982 55.6534C33.2147 55.9259 33.5752 56.053 33.9274 55.9868C34.2794 55.9206 34.5692 55.671 34.6868 55.3326C35.2802 53.649 35.0202 51.7824 33.9893 50.3251C32.9586 48.8678 31.2849 48.0011 29.4999 48Z"/>
</svg>

<svg width="60" height="60" fill="#686868" xmlns="http://www.w3.org/2000/svg"><path d="M54.456 49.157a5.47 5.47 0 00-7.873-2.314 5.497 5.497 0 00-3.93-1.841 5.992 5.992 0 00-8.078-3.49c-.034-.055-.077-.103-.113-.158A19.136 19.136 0 0038 30.36v-.58A2.768 2.768 0 0035.25 27H33V6.188A5.999 5.999 0 0036 1a1 1 0 00-1-1H25a1 1 0 00-1 1 5.999 5.999 0 003 5.188V27h-2.25A2.768 2.768 0 0022 29.78v.58c.005 2.46.493 4.894 1.437 7.165a9.44 9.44 0 00-5.359 4.584 5.885 5.885 0 00-6.276 2.903 4.428 4.428 0 00-4.53 2.992A7.51 7.51 0 000 55.5V59a1 1 0 001 1h58a1 1 0 001-1v-3a7.005 7.005 0 00-5.544-6.843zM26.126 2h7.747a4 4 0 01-7.746 0zM29 26.997V6.91A6 6 0 0030 7c.335-.002.67-.032 1-.09v20.087h-2zM31 29v3a1 1 0 11-2 0v-3h2zm-7 .78a.757.757 0 01.75-.78H27v3a3 3 0 006 0v-3h2.25a.757.757 0 01.75.78v.58a17.091 17.091 0 01-2.852 9.382 9.216 9.216 0 00-7.737-2.667l-.07-.154A16.78 16.78 0 0124 30.36v-.58zM58 58H2v-2.5A5.506 5.506 0 017.5 50c.157 0 .311.012.464.024a1.001 1.001 0 001.075-.861 2.438 2.438 0 013.083-2.072 1 1 0 001.176-.592A3.982 3.982 0 0117 44c.444.006.884.087 1.302.24a1 1 0 001.254-.568 7.492 7.492 0 0113.72-.37 1 1 0 001.47.397 3.99 3.99 0 016.177 2.548c.1.52.59.873 1.116.804l.11-.016A2.53 2.53 0 0142.5 47c1.25-.001 2.405.674 3.017 1.764a1 1 0 001.56.22 3.473 3.473 0 015.717 1.39 1 1 0 00.824.669A5 5 0 0158 56v2z"/><path d="M29.433 43.994a1 1 0 00.524-1.772 5.501 5.501 0 00-8.644 2.445 1 1 0 101.886.667A3.507 3.507 0 0126.5 43a3.46 3.46 0 012.2.777 1 1 0 00.733.217zM42 49c-.527 0-1.044.138-1.5.401a1 1 0 101 1.733A1 1 0 0143 52a1 1 0 102 0 3.003 3.003 0 00-3-3zM53 53c-.527 0-1.044.139-1.5.402a1 1 0 101 1.731A1 1 0 0154 56a1 1 0 102 0 3.003 3.003 0 00-3-3zM14.198 49.07a3.502 3.502 0 00-4.128 4.128 1 1 0 101.96-.396 1.502 1.502 0 011.772-1.772 1 1 0 10.396-1.96zM29.5 48c-.624 0-1.244.105-1.833.313a1 1 0 00.665 1.886 3.504 3.504 0 014.469 4.468 1 1 0 101.886.666A5.503 5.503 0 0029.5 48z"/></svg>
